X: 1
T: Alexandrovsky [Em]
O: Russia
R: waltz
Z: John Chambers <jc:trillian.mit.edu>
M: 3/4
L: 1/4
K: Em
B, \
| "Em"EE>G | BG>F | E^D>E | "B7"F3 | FF>G | AG>F | "Em"EE>G | B3 || "Am"ee>e | ec>B |
| AA>c | e3 | "Em"BGB | "B7"AG>F | "Em"E3- | Ez"D7"D |]| "G"GG>B | dB>A | GF>G | "D7"A3 | AA>c |
| ec>A | "G"GG>B | d3 || "Am"ee>e | ec>B | AA>c | e3 | "Em"BGB | "B7"AG>F | "Em"E3- | Ez2 |]
